X: 7
T:La Marcho dla Baio
R:---
O:Val Varaita, Italie
M:2/4
L:1/8
K:G
|:G>G GG|BG GG|B2 Bc/2B/2|Ad d2|A>A AB|AG G2|dd/2d/2 dd|G2G2:|
|:G>B BB|B>G GG|G>d dd|c2 A2|D>A AA| [1 AF FD|DA dd|B2 G2:| [2 AF AB/2c/2|dc B/2c/2B/2A/2|GG G2]|| ["bbin" d2 g2|g2

%%footer $D   Galouvielle-MBe 2006 \n--- (Val Varaita, Italie)
